src/assets/culture.svg

<svg width="512" height="512" viewBox="0 0 512 512" fill="none" xmlns="http://www.w3.org/2000/svg">
<g clip-path="url(#clip0)">
<path d="M512 335.448V406.069H326.621C329.441 394.058 333.099 382.259 337.567 370.759H356.987C367.642 370.759 376.408 354.869 376.408 335.448H512Z" fill="#C03A2B"/>
<path d="M512 326.621V353.103H388.414V317.793H503.172C508.048 317.793 512 321.745 512 326.621Z" fill="#393F4A"/>
<path d="M414.896 35.3105H476.69V141.242H414.896V35.3105Z" fill="#F5EFCA"/>
<path d="M370.759 35.3105H423.724V141.242H370.759V35.3105Z" fill="#285680"/>
<path d="M512 44.1381V132.414C512 137.289 508.048 141.242 503.173 141.242H467.862V35.3105H503.173C508.048 35.3105 512 39.2628 512 44.1381Z" fill="#C03A2B"/>
<path d="M370.759 176.552H503.173C508.048 176.552 512 180.504 512 185.379V273.655C512 278.531 508.048 282.483 503.173 282.483H370.759V176.552Z" fill="#F5EFCA"/>
<path d="M450.207 247.173C459.958 247.173 467.862 239.268 467.862 229.517C467.862 219.767 459.958 211.862 450.207 211.862C440.456 211.862 432.552 219.767 432.552 229.517C432.552 239.268 440.456 247.173 450.207 247.173Z" fill="#C03A2B"/>
<path d="M44.1379 0.794434L79.4483 371.553C68.5843 373.285 58.5607 378.451 50.8469 386.295C41.2248 395.829 4.23724e-06 409.07 0 423.724L4.23724e-06 52.9655C-0.0102524 27.1268 18.6546 5.06492 44.1379 0.794434Z" fill="#C03A2B"/>
<path d="M388.414 423.724V450.207C388.37 464.815 376.539 476.646 361.931 476.69H353.104C351.691 474.748 327.857 463.89 326.621 461.859C323.795 457.145 321.345 452.216 319.294 447.117C315.114 436.888 312.955 425.946 312.938 414.896L388.414 423.724Z" fill="#B19046"/>
<path d="M388.414 17.6553V353.104C388.414 362.814 380.469 379.586 370.758 379.586L52.9653 378.792C50.0333 378.773 47.1065 379.039 44.226 379.586H44.1377V0.794594C47.0496 0.259699 50.0046 -0.00624894 52.9653 0.000111426H370.758C380.497 0.0291966 388.384 7.91667 388.414 17.6553Z" fill="#F0C419"/>
<path d="M353.104 473.38C39.9892 473.38 57.3177 473.653 52.083 472.885C26.4061 471.861 5.83764 451.258 4.85765 425.579C3.87766 399.9 22.8159 377.789 48.34 374.811C82.7235 374.811 -70.1261 374.069 353.121 374.069C329.907 403.101 329.9 444.34 353.104 473.38Z" fill="#F5EFCA"/>
<path d="M194.207 432.552H44.1381C39.2628 432.552 35.3105 428.599 35.3105 423.724C35.3105 418.849 39.2628 414.896 44.1381 414.896H194.207C199.082 414.896 203.035 418.849 203.035 423.724C203.035 428.599 199.082 432.552 194.207 432.552Z" fill="#CBB292"/>
<path d="M326.091 200.828C317.37 221.417 303.059 239.153 284.778 252.028V251.939C276.063 249.011 267.02 247.172 257.854 246.466C245.593 245.343 233.231 246.147 221.219 248.85C207.469 252.525 194.85 259.563 184.496 269.33C173.307 266.256 162.63 261.556 152.805 255.382V255.294C154.676 249.474 156.064 243.51 156.954 237.462C157.265 228.657 156.465 219.848 154.571 211.244C152.541 193.059 165.076 178.935 166.576 161.368C167.334 154.802 163.506 148.568 157.307 146.273C148.568 142.477 138.593 142.301 129.942 138.77C117.415 132.687 108.789 120.711 106.99 106.902C112.064 95.25 118.979 84.49 127.47 75.0345C145.666 75.2318 163.814 73.1559 181.495 68.8552C200.295 65.4038 216.219 52.9749 224.132 35.5752C239.791 36.5919 255.093 40.7023 269.153 47.669V47.7573L269.065 47.8455C259.175 59.5198 246.52 68.533 232.254 74.0635C221.405 78.3838 213.162 87.4744 209.92 98.6924C207.007 114.847 222.543 124.646 236.138 127.647C252.292 131.266 266.77 140.27 266.858 158.455C266.541 166.105 264.867 173.637 261.914 180.701C257.878 189.044 255.224 197.988 254.058 207.183C253.924 212.484 256.278 217.542 260.42 220.853C264.562 224.163 270.015 225.344 275.156 224.044C282.575 222.794 289.61 219.865 295.724 215.481C296.43 215.04 297.136 214.599 297.843 214.069C306.344 207.922 315.927 203.43 326.091 200.828Z" fill="#2FA8CC"/>
<path d="M154.571 211.244C156.465 219.849 157.265 228.658 156.954 237.462C156.064 243.51 154.676 249.474 152.805 255.294V255.382C102.971 223.987 83.511 160.919 106.99 106.902C108.789 120.711 117.415 132.688 129.942 138.77C138.593 142.301 148.568 142.478 157.307 146.273C163.506 148.569 167.333 154.802 166.576 161.369C165.076 178.935 152.541 193.06 154.571 211.244Z" fill="#4FBA6F"/>
<path d="M224.132 35.5754C216.219 52.9751 200.295 65.404 181.495 68.8554C163.814 73.1562 145.666 75.232 127.47 75.0348C150.048 49.7282 182.362 35.2736 216.276 35.3106C218.924 35.3106 221.484 35.3989 224.132 35.5754Z" fill="#B0D3F0"/>
<path d="M284.778 251.939V252.028C255.617 272.495 218.83 278.842 184.497 269.33C194.85 259.563 207.469 252.525 221.219 248.85C233.231 246.147 245.593 245.343 257.854 246.466C267.02 247.172 276.064 249.011 284.778 251.939Z" fill="#B0D3F0"/>
<path d="M335.448 154.483C335.45 170.4 332.269 186.158 326.091 200.828C315.928 203.429 306.345 207.922 297.843 214.069C297.137 214.599 296.431 215.04 295.724 215.481C289.61 219.865 282.575 222.794 275.156 224.044C270.015 225.344 264.563 224.163 260.42 220.853C256.278 217.542 253.924 212.484 254.058 207.183C255.225 197.988 257.878 189.044 261.915 180.701C264.867 173.637 266.541 166.105 266.858 158.455C266.77 140.27 252.293 131.266 236.138 127.647C222.544 124.645 207.007 114.847 209.92 98.6924C213.162 87.4744 221.406 78.3837 232.254 74.0634C246.52 68.5329 259.175 59.5198 269.065 47.8455L269.153 47.7572V47.6689C309.761 67.7744 335.454 109.17 335.448 154.483Z" fill="#4FBA6F"/>
<path d="M291.31 317.793H141.241C136.366 317.793 132.414 313.841 132.414 308.966C132.414 304.09 136.366 300.138 141.241 300.138H291.31C296.185 300.138 300.138 304.09 300.138 308.966C300.138 313.841 296.185 317.793 291.31 317.793Z" fill="#F29C1F"/>
<path d="M47.2276 388.944C51.2 388.149 30.2963 388.414 361.931 388.414C376.539 388.37 388.37 376.539 388.414 361.931V353.104C388.385 362.842 380.497 370.73 370.759 370.759H52.9655C31.8717 370.612 12.7439 383.12 4.42044 402.503C-3.90298 421.886 0.198759 444.369 14.8304 459.564C25.2024 470.265 39.3898 476.422 54.2897 476.69H361.931C376.539 476.646 388.37 464.815 388.414 450.207V423.724C388.414 418.849 384.462 414.897 379.586 414.897C374.711 414.897 370.759 418.849 370.759 423.724V450.207C370.759 455.082 366.806 459.035 361.931 459.035H55.0842C45.2542 459.169 35.7766 455.378 28.751 448.501C21.7253 441.625 17.7318 432.231 17.6552 422.4C18.2947 405.631 30.6643 391.637 47.2276 388.944ZM348.045 468.745C347.71 468.171 347.392 467.588 347.074 466.979C347.401 467.571 347.701 468.153 348.045 468.745Z" fill="#E64C3C"/>
<path d="M137.295 511.056L118.705 501.76C116.22 500.519 113.297 500.519 110.813 501.76L92.2218 511.056C89.4875 512.422 86.2409 512.277 83.6397 510.672C81.0386 509.066 79.4529 506.23 79.4482 503.173V423.725H150.069V503.173C150.064 506.23 148.479 509.066 145.877 510.672C143.276 512.277 140.03 512.422 137.295 511.056Z" fill="#C03A2B"/>
<path d="M512 388.414V414.897C512 419.772 508.048 423.724 503.172 423.724H335.448C335.446 411.54 338.065 399.497 343.128 388.414H512Z" fill="#F0C419"/>
</g>
<defs>
<clipPath id="clip0">
<rect width="512" height="512" fill="white"/>
</clipPath>
</defs>
</svg>

<svg width="512" height="512" fill="none" xmlns="http://www.w3.org/2000/svg"><g clip-path="url(#a)"><path d="M512 335.448v70.621H326.621a264.34 264.34 0 0 1 10.946-35.31h19.42c10.655 0 19.421-15.89 19.421-35.311H512Z" fill="#C03A2B"/><path d="M512 326.621v26.482H388.414v-35.31h114.758a8.827 8.827 0 0 1 8.828 8.828Z" fill="#393F4A"/><path d="M414.896 35.31h61.794v105.932h-61.794V35.311Z" fill="#F5EFCA"/><path d="M370.759 35.31h52.965v105.932h-52.965V35.311Z" fill="#285680"/><path d="M512 44.138v88.276a8.828 8.828 0 0 1-8.827 8.828h-35.311V35.311h35.311A8.827 8.827 0 0 1 512 44.137Z" fill="#C03A2B"/><path d="M370.759 176.552h132.414a8.827 8.827 0 0 1 8.827 8.827v88.276a8.827 8.827 0 0 1-8.827 8.828H370.759V176.552Z" fill="#F5EFCA"/><path d="M450.207 247.173c9.751 0 17.655-7.905 17.655-17.656 0-9.75-7.904-17.655-17.655-17.655-9.751 0-17.655 7.905-17.655 17.655 0 9.751 7.904 17.656 17.655 17.656ZM44.138.794l35.31 370.759a51.481 51.481 0 0 0-28.601 14.742C41.225 395.829 0 409.07 0 423.724V52.966C-.01 27.126 18.655 5.065 44.138.794Z" fill="#C03A2B"/><path d="M388.414 423.724v26.483c-.044 14.608-11.875 26.439-26.483 26.483h-8.827c-1.413-1.942-25.247-12.8-26.483-14.831a104.555 104.555 0 0 1-7.327-14.742 85.527 85.527 0 0 1-6.356-32.221l75.476 8.828Z" fill="#B19046"/><path d="M388.414 17.655v335.449c0 9.71-7.945 26.482-17.656 26.482l-317.793-.794a45.27 45.27 0 0 0-8.739.794h-.088V.795C47.05.26 50.005-.006 52.965 0h317.793c9.739.03 17.626 7.917 17.656 17.655Z" fill="#F0C419"/><path d="M353.104 473.38c-313.115 0-295.786.273-301.021-.495-25.677-1.024-46.245-21.627-47.225-47.306-.98-25.679 17.958-47.79 43.482-50.768 34.383 0-118.466-.742 304.781-.742-23.214 29.032-23.221 70.271-.017 99.311Z" fill="#F5EFCA"/><path d="M194.207 432.552H44.138a8.828 8.828 0 0 1 0-17.656h150.069a8.829 8.829 0 0 1 0 17.656Z" fill="#CBB292"/><path d="M326.091 200.828a119.75 119.75 0 0 1-41.313 51.2v-.089a111.402 111.402 0 0 0-26.924-5.473 117.896 117.896 0 0 0-36.635 2.384 85.805 85.805 0 0 0-36.723 20.48 118.629 118.629 0 0 1-31.691-13.948v-.088a111.127 111.127 0 0 0 4.149-17.832 104.754 104.754 0 0 0-2.383-26.218c-2.03-18.185 10.505-32.309 12.005-49.876a14.343 14.343 0 0 0-9.269-15.095c-8.739-3.796-18.714-3.972-27.365-7.503a41.367 41.367 0 0 1-22.952-31.868 118.515 118.515 0 0 1 20.48-31.868 218.552 218.552 0 0 0 54.025-6.179 58.43 58.43 0 0 0 42.637-33.28 118.729 118.729 0 0 1 45.021 12.094v.088l-.088.089a91.673 91.673 0 0 1-36.811 26.218 37.808 37.808 0 0 0-22.334 24.628c-2.913 16.155 12.623 25.954 26.218 28.955 16.154 3.619 30.632 12.623 30.72 30.808a64.613 64.613 0 0 1-4.944 22.246 85.516 85.516 0 0 0-7.856 26.482 16.95 16.95 0 0 0 21.098 16.861 49.374 49.374 0 0 0 20.568-8.563c.706-.441 1.412-.882 2.119-1.412a83.587 83.587 0 0 1 28.248-13.241Z" fill="#2FA8CC"/><path d="M154.571 211.244a104.762 104.762 0 0 1 2.383 26.218 111.127 111.127 0 0 1-4.149 17.832v.088c-49.834-31.395-69.294-94.463-45.815-148.48a41.365 41.365 0 0 0 22.952 31.868c8.651 3.531 18.626 3.708 27.365 7.503a14.345 14.345 0 0 1 9.269 15.096c-1.5 17.566-14.035 31.691-12.005 49.875Z" fill="#4FBA6F"/><path d="M224.132 35.575a58.43 58.43 0 0 1-42.637 33.28 218.553 218.553 0 0 1-54.025 6.18 118.839 118.839 0 0 1 88.806-39.724c2.648 0 5.208.088 7.856.264ZM284.778 251.939v.089a119.171 119.171 0 0 1-100.281 17.302 85.796 85.796 0 0 1 36.722-20.48 117.896 117.896 0 0 1 36.635-2.384c9.166.706 18.21 2.545 26.924 5.473Z" fill="#B0D3F0"/><path d="M335.448 154.483a119.372 119.372 0 0 1-9.357 46.345 83.586 83.586 0 0 0-28.248 13.241c-.706.53-1.412.971-2.119 1.412a49.374 49.374 0 0 1-20.568 8.563 16.95 16.95 0 0 1-21.098-16.861 85.518 85.518 0 0 1 7.857-26.482 64.634 64.634 0 0 0 4.943-22.246c-.088-18.185-14.565-27.189-30.72-30.808-13.594-3.002-29.131-12.8-26.218-28.955a37.81 37.81 0 0 1 22.334-24.629 91.672 91.672 0 0 0 36.811-26.218l.088-.088v-.088c40.608 20.105 66.301 61.501 66.295 106.814Z" fill="#4FBA6F"/><path d="M291.31 317.793H141.241a8.827 8.827 0 0 1-8.827-8.827 8.827 8.827 0 0 1 8.827-8.828H291.31a8.828 8.828 0 0 1 0 17.655Z" fill="#F29C1F"/><path d="M47.228 388.944c3.972-.795-16.932-.53 314.703-.53 14.608-.044 26.439-11.875 26.483-26.483v-8.827c-.029 9.738-7.917 17.626-17.655 17.655H52.966a52.436 52.436 0 0 0-38.135 88.805A56.363 56.363 0 0 0 54.29 476.69H361.93c14.608-.044 26.439-11.875 26.483-26.483v-26.483a8.827 8.827 0 0 0-8.828-8.827 8.827 8.827 0 0 0-8.827 8.827v26.483a8.829 8.829 0 0 1-8.828 8.828H55.084A36.925 36.925 0 0 1 17.655 422.4c.64-16.769 13.01-30.763 29.573-33.456Zm300.817 79.801a42.631 42.631 0 0 1-.971-1.766c.327.592.627 1.174.971 1.766Z" fill="#E64C3C"/><path d="m137.295 511.056-18.59-9.296a8.83 8.83 0 0 0-7.892 0l-18.591 9.296a8.83 8.83 0 0 1-12.774-7.883v-79.448h70.621v79.448a8.828 8.828 0 0 1-12.774 7.883Z" fill="#C03A2B"/><path d="M512 388.414v26.483a8.827 8.827 0 0 1-8.828 8.827H335.448a84.946 84.946 0 0 1 7.68-35.31H512Z" fill="#F0C419"/></g><defs><clipPath id="a"><path fill="#fff" d="M0 0h512v512H0z"/></clipPath></defs></svg>
